X:56
T:Little Cascade, The
R:Reel
R:Pipe march
O:Scotland
M:4/4
C:P.M. G.S. McLennan
K:Hp
|:{d}FB {E}Bd {e}dB {d}Fd| \
{e}dc {dBc}BF {e}dF {d}Bd| \
{e}FB {E}Bd {e}dB {d}Fd \
|1 {ecd}cA {B}EA {d}ce dc |
:|2 {e}ce dc {dcd}c2 {BE}B3/2 \
|:d/2| {ecd}cF {e}dc {d}Bd {e}Fd|
|1 {ecd}cF ed {e}d2 {cB}c3/2:|2 \
{e}ce dc {dcd}c2 {BE}B3/2:|
|:d/2 | {eDA}D2 {A}FB {d}FB {e}dB| \
{dc}d2 {e}cd {e}Bd {e}FB |
|1 {dDA}D2 {A}FB {d}FB {e}dB | \
{dcd}cA {B}EA {d}ce dc :|2 \
{dDF}D2 {A}FB {e}dB {d}Fe| \
{e}ce dc {dcd}c2 {BE}B3/4||*
|:c/2| d{e}B cd {e}Bc d{e}B|\
c{d}A Bc {d}AB c{d}A| \
d{e}B cd {e}Bc d{e}B| \
{d}ce d{e}c {dcd}c2 {BE}B3/2:|*
|:d/2| {e}FB {e}dc {CAC}B2 {d}cA\
|1 {d}FB Ac {dBc}BA {d}F{A}E:|2 \
{d}FB Ac {dBc}c2 {BE}B3/2:|*
|:d/2| {e}DA {d}FB {d}Ac {dBc}B2| \
{e}dc dB {d}FB cd |
|1 DA {d}FB {d}Ac {dBc}B2| \
{d}FB {d}Ac {dcd}c2 {BE}B3/2:|2 \
{de}dc dB {d}cA {d}BA| \
{d}FB {d}Ac {dcd}c2 B3/2||**
